;FLAVOR:Marlin
;TIME:20831
;Filament used: 15.5505m
;Layer height: 0.16
;MINX:48.521
;MINY:55.777
;MINZ:0.2
;MAXX:186.479
;MAXY:179.223
;MAXZ:48.88
;Generated with Cura_SteamEngine 4.13.1
M140 S70
M105
M190 S70
M104 S200
M105
M109 S200
M82 ;absolute extrusion mode
; Ender 3 Custom Start G-code
G92 E0 ; Reset Extruder
G28 ; Home all axes
G1 Z2.0 F3000 ; Move Z Axis up little to prevent scratching of Heat Bed
G1 X0.1 Y20 Z0.3 F5000.0 ; Move to start position
G1 X0.1 Y200.0 Z0.3 F1500.0 E15 ; Draw the first line
G1 X0.4 Y200.0 Z0.3 F5000.0 ; Move to side a little
G1 X0.4 Y20 Z0.3 F1500.0 E30 ; Draw the second line
G92 E0 ; Reset Extruder
G1 Z2.0 F3000 ; Move Z Axis up little to prevent scratching of Heat Bed
G1 X5 Y20 Z0.3 F5000.0 ; Move over to prevent blob squish
G92 E0
G92 E0
G1 F2700 E-5
;LAYER_COUNT:259
;LAYER:0
M107
G0 F6000 X51.509 Y57.532 Z0.2
;TYPE:SKIRT
G1 F2700 E0
G1 F1200 X52.145 Y57.065 E0.02624
G1 X52.825 Y56.664 E0.0525
G1 X53.543 Y56.334 E0.07878
G1 X54.29 Y56.079 E0.10504
G1 X55.059 Y55.9 E0.1313
G1 X55.843 Y55.8 E0.15758
G1 X56.438 Y55.777 E0.17739
G1 X178.562 Y55.777 E4.23925
G1 X179.351 Y55.817 E4.26552
G1 X180.131 Y55.936 E4.29177
G1 X180.896 Y56.134 E4.31805
G1 X181.636 Y56.408 E4.3443
G1 X182.345 Y56.756 E4.37056
G1 X183.016 Y57.174 E4.39686
G1 X183.64 Y57.657 E4.4231
G1 X184.077 Y58.062 E4.44292
G1 X184.194 Y58.179 E4.44842
G1 X184.724 Y58.765 E4.4747
G1 X185.191 Y59.401 E4.50095
G1 X185.592 Y60.081 E4.5272
G1 X185.922 Y60.799 E4.55349
G1 X186.177 Y61.546 E4.57974
G1 X186.356 Y62.315 E4.606
G1 X186.456 Y63.099 E4.63229
G1 X186.479 Y63.694 E4.65209
G1 X186.479 Y171.306 E8.23128
G1 X186.439 Y172.095 E8.25756
G1 X186.32 Y172.875 E8.2838
G1 X186.122 Y173.64 E8.31008
G1 X185.848 Y174.38 E8.33633
G1 X185.5 Y175.089 E8.3626
G1 X185.082 Y175.76 E8.38889
G1 X184.599 Y176.384 E8.41514
G1 X184.194 Y176.821 E8.43495
G1 X184.077 Y176.938 E8.44046
G1 X183.491 Y177.468 E8.46674
G1 X182.855 Y177.935 E8.49298
G1 X182.175 Y178.336 E8.51924
G1 X181.457 Y178.666 E8.54552
G1 X180.71 Y178.921 E8.57177
G1 X179.941 Y179.1 E8.59803
G1 X179.157 Y179.2 E8.62432
G1 X178.562 Y179.223 E8.64412
G1 X160.796 Y179.223 E9.23502
G1 X160.007 Y179.183 E9.2613
G1 X159.227 Y179.064 E9.28754
G1 X158.462 Y178.866 E9.31383
G1 X157.722 Y178.592 E9.34007
G1 X157.013 Y178.244 E9.36634
G1 X156.342 Y177.826 E9.39263
G1 X155.718 Y177.343 E9.41888
G1 X155.281 Y176.938 E9.4387
G1 X155.164 Y176.821 E9.4442
G1 X154.634 Y176.235 E9.47048
G1 X154.167 Y175.599 E9.49672
G1 X153.766 Y174.919 E9.52298
G1 X153.436 Y174.201 E9.54926
G1 X153.181 Y173.454 E9.57551
G1 X153.002 Y172.685 E9.60177
G1 X152.902 Y171.901 E9.62806
G1 X152.879 Y171.306 E9.64787
G1 X152.879 Y154.903 E10.19343
G1 X56.438 Y154.903 E13.40107
G1 X55.649 Y154.863 E13.42735
G1 X54.869 Y154.744 E13.45359
G1 X54.104 Y154.546 E13.47987
G1 X53.364 Y154.272 E13.50612
G1 X52.655 Y153.924 E13.53239
G1 X51.984 Y153.506 E13.55868
G1 X51.36 Y153.023 E13.58493
G1 X50.923 Y152.618 E13.60474
G1 X50.806 Y152.501 E13.61025
G1 X50.276 Y151.915 E13.63653
G1 X49.809 Y151.279 E13.66277
G1 X49.408 Y150.599 E13.68903
G1 X49.078 Y149.881 E13.71531
G1 X48.823 Y149.134 E13.74156
G1 X48.644 Y148.365 E13.76782
G1 X48.544 Y147.581 E13.79411
G1 X48.521 Y146.986 E13.81392
G1 X48.521 Y63.694 E16.58422
G1 X48.561 Y62.905 E16.61049
G1 X48.68 Y62.125 E16.63674
G1 X48.878 Y61.36 E16.66302
G1 X49.152 Y60.62 E16.68927
G1 X49.5 Y59.911 E16.71553
G1 X49.918 Y59.24 E16.74183
G1 X50.401 Y58.616 E16.76807
G1 X50.806 Y58.179 E16.78789
G1 X50.923 Y58.062 E16.79339
G1 X51.509 Y57.532 E16.81967
G0 F6000 X51.777 Y57.83
G1 F1200 X52.399 Y57.377 E16.84527
G1 X53.064 Y56.991 E16.87084
G1 X53.766 Y56.676 E16.89643
G1 X54.497 Y56.436 E16.92202
G1 X55.248 Y56.273 E16.94758
G1 X56.013 Y56.189 E16.97318
G1 X56.438 Y56.177 E16.98732
G1 X178.562 Y56.177 E21.04918
G1 X179.33 Y56.217 E21.07476
G1 X180.09 Y56.336 E21.10034
G1 X180.833 Y56.534 E21.12592
G1 X181.552 Y56.808 E21.15151
G1 X182.238 Y57.155 E21.17708
G1 X182.885 Y57.571 E21.20266
G1 X183.485 Y58.052 E21.22824
G1 X183.795 Y58.344 E21.24241
G1 X183.912 Y58.461 E21.24791
G1 X184.426 Y59.033 E21.27349
G1 X184.879 Y59.655 E21.29908
G1 X185.265 Y60.32 E21.32465
G1 X185.58 Y61.022 E21.35024
G1 X185.82 Y61.753 E21.37583
G1 X185.983 Y62.504 E21.40139
G1 X186.067 Y63.269 E21.42699
G1 X186.079 Y63.694 E21.44113
G1 X186.079 Y171.306 E25.02032
G1 X186.039 Y172.074 E25.0459
G1 X185.92 Y172.834 E25.07149
G1 X185.722 Y173.577 E25.09706
G1 X185.448 Y174.296 E25.12265
G1 X185.101 Y174.982 E25.14822
G1 X184.685 Y175.629 E25.17381
G1 X184.204 Y176.229 E25.19938
G1 X183.912 Y176.539 E25.21355
G1 X183.795 Y176.656 E25.21905
G1 X183.223 Y177.17 E25.24463
G1 X182.601 Y177.623 E25.27022
G1 X181.936 Y178.009 E25.2958
G1 X181.234 Y178.324 E25.32139
G1 X180.503 Y178.564 E25.34698
G1 X179.752 Y178.727 E25.37254
G1 X178.987 Y178.811 E25.39813
G1 X178.562 Y178.823 E25.41227
G1 X160.796 Y178.823 E26.00317
G1 X160.028 Y178.783 E26.02875
G1 X159.268 Y178.664 E26.05434
G1 X158.525 Y178.466 E26.07991
G1 X157.806 Y178.192 E26.1055
G1 X157.12 Y177.845 E26.13107
G1 X156.473 Y177.429 E26.15666
G1 X155.873 Y176.948 E26.18223
G1 X155.563 Y176.656 E26.1964
G1 X155.446 Y176.539 E26.2019
G1 X154.932 Y175.967 E26.22748
G1 X154.479 Y175.345 E26.25307
G1 X154.093 Y174.68 E26.27865
G1 X153.778 Y173.978 E26.30424
G1 X153.538 Y173.247 E26.32983
G1 X153.375 Y172.496 E26.35539
G1 X153.291 Y171.731 E26.38099
G1 X153.279 Y171.306 E26.39513
G1 X153.279 Y154.503 E26.954
G1 X56.438 Y154.503 E30.17494
G1 X55.67 Y154.463 E30.20052
G1 X54.91 Y154.344 E30.22611
G1 X54.167 Y154.146 E30.25168
G1 X53.448 Y153.872 E30.27727
G1 X52.762 Y153.525 E30.30284
G1 X52.115 Y153.109 E30.32842
G1 X51.515 Y152.628 E30.354
G1 X51.205 Y152.336 E30.36817
G1 X51.088 Y152.219 E30.37367
G1 X50.574 Y151.647 E30.39925
G1 X50.121 Y151.025 E30.42484
G1 X49.735 Y150.36 E30.45041
G1 X49.42 Y149.658 E30.47601
G1 X49.18 Y148.927 E30.5016
G1 X49.017 Y148.176 E30.52716
G1 X48.933 Y147.411 E30.55275
G1 X48.921 Y146.986 E30.56689
G1 X48.921 Y63.694 E33.3372
G1 X48.961 Y62.926 E33.36277
G1 X49.08 Y62.166 E33.38836
G1 X49.278 Y61.423 E33.41394
G1 X49.552 Y60.704 E33.43953
G1 X49.899 Y60.018 E33.4651
G1 X50.315 Y59.371 E33.49068
G1 X50.796 Y58.771 E33.51626
G1 X51.088 Y58.461 E33.53042
G1 X51.205 Y58.344 E33.53592
G1 X51.777 Y57.83 E33.5615
G0 F6000 X52.045 Y58.127
G1 F1200 X52.651 Y57.69 E33.58635
G1 X53.301 Y57.319 E33.61124
G1 X53.987 Y57.02 E33.63613
G1 X54.701 Y56.796 E33.66102
G1 X55.434 Y56.649 E33.68589
G1 X56.438 Y56.577 E33.71937
G1 X178.562 Y56.577 E37.78123
G1 X179.309 Y56.617 E37.80611
G1 X180.047 Y56.736 E37.83097
G1 X180.769 Y56.934 E37.85587
G1 X181.465 Y57.207 E37.88074
G1 X182.128 Y57.554 E37.90563
G1 X182.751 Y57.969 E37.93053
G1 X183.512 Y58.627 E37.96399
G1 X183.629 Y58.744 E37.96949
G1 X184.129 Y59.301 E37.99438
G1 X184.566 Y59.907 E38.01923
G1 X184.937 Y60.557 E38.04413
G1 X185.236 Y61.243 E38.06902
G1 X185.46 Y61.957 E38.09391
G1 X185.607 Y62.69 E38.11877
G1 X185.679 Y63.694 E38.15225
G1 X185.679 Y171.306 E41.73144
G1 X185.639 Y172.053 E41.75632
G1 X185.52 Y172.791 E41.78118
G1 X185.322 Y173.513 E41.80608
G1 X185.049 Y174.209 E41.83095
G1 X184.702 Y174.872 E41.85584
G1 X184.287 Y175.495 E41.88074
G1 X183.629 Y176.256 E41.9142
G1 X183.512 Y176.373 E41.9197
G1 X182.955 Y176.873 E41.94459
G1 X182.349 Y177.31 E41.96944
G1 X181.699 Y177.681 E41.99434
G1 X181.013 Y177.98 E42.01923
G1 X180.299 Y178.204 E42.04412
G1 X179.566 Y178.351 E42.06898
G1 X178.562 Y178.423 E42.10246
G1 X160.796 Y178.423 E42.69336
G1 X160.049 Y178.383 E42.71824
G1 X159.311 Y178.264 E42.7431
G1 X158.589 Y178.066 E42.768
G1 X157.893 Y177.793 E42.79287
G1 X157.23 Y177.446 E42.81776
G1 X156.607 Y177.031 E42.84266
G1 X155.846 Y176.373 E42.87612
G1 X155.729 Y176.256 E42.88162
G1 X155.229 Y175.699 E42.90652
G1 X154.792 Y175.093 E42.93137
G1 X154.421 Y174.443 E42.95626
G1 X154.122 Y173.757 E42.98115
G1 X153.898 Y173.043 E43.00604
G1 X153.751 Y172.31 E43.0309
G1 X153.679 Y171.306 E43.06438
G1 X153.679 Y154.103 E43.63655
G1 X56.438 Y154.103 E46.8708
G1 X55.691 Y154.063 E46.89568
G1 X54.953 Y153.944 E46.92055
G1 X54.231 Y153.746 E46.94545
G1 X53.535 Y153.473 E46.97031
G1 X52.872 Y153.126 E46.9952
G1 X52.249 Y152.711 E47.0201
G1 X51.488 Y152.053 E47.05356
G1 X51.371 Y151.936 E47.05906
G1 X50.871 Y151.379 E47.08396
G1 X50.434 Y150.773 E47.10881
G1 X50.063 Y150.123 E47.1337
G1 X49.764 Y149.437 E47.15859
G1 X49.54 Y148.723 E47.18348
G1 X49.393 Y147.99 E47.20835
G1 X49.321 Y146.986 E47.24182
G1 X49.321 Y63.694 E50.01213
G1 X49.361 Y62.947 E50.03701
G1 X49.48 Y62.209 E50.06187
G1 X49.678 Y61.487 E50.08677
G1 X49.951 Y60.791 E50.11164
G1 X50.298 Y60.128 E50.13653
G1 X50.713 Y59.505 E50.16142
G1 X51.371 Y58.744 E50.19489
G1 X51.488 Y58.627 E50.20039
G1 X52.045 Y58.127 E50.22528
G0 F6000 X52.312 Y58.426
G1 F1200 X52.903 Y58.003 E50.24946
G1 X53.537 Y57.649 E50.27361
G1 X54.206 Y57.366 E50.29777
G1 X54.902 Y57.158 E50.32193
G1 X55.617 Y57.028 E50.3461
G1 X56.438 Y56.977 E50.37346
G1 X178.562 Y56.977 E54.43532
G1 X179.287 Y57.017 E54.45947
G1 X180.004 Y57.136 E54.48364
G1 X180.703 Y57.334 E54.50781
G1 X181.376 Y57.607 E54.53196
G1 X182.015 Y57.952 E54.55612
G1 X182.612 Y58.366 E54.58028
G1 X183.229 Y58.91 E54.60764
G1 X183.346 Y59.027 E54.61314
G1 X183.83 Y59.568 E54.63728
G1 X184.253 Y60.159 E54.66146
G1 X184.607 Y60.793 E54.68561
G1 X184.89 Y61.462 E54.70977
G1 X185.098 Y62.158 E54.73393
G1 X185.228 Y62.873 E54.7581
G1 X185.279 Y63.694 E54.78546
G1 X185.279 Y171.306 E58.36465
G1 X185.239 Y172.031 E58.3888
G1 X185.12 Y172.748 E58.41297
G1 X184.922 Y173.447 E58.43714
G1 X184.649 Y174.12 E58.46129
G1 X184.304 Y174.759 E58.48545
G1 X183.89 Y175.356 E58.50961
G1 X183.346 Y175.973 E58.53697
G1 X183.229 Y176.09 E58.54247
G1 X182.688 Y176.574 E58.56662
G1 X182.097 Y176.997 E58.59079
G1 X181.463 Y177.351 E58.61494
G1 X180.794 Y177.634 E58.6391
G1 X180.098 Y177.842 E58.66326
G1 X179.383 Y177.972 E58.68743
G1 X178.562 Y178.023 E58.71479
G1 X160.796 Y178.023 E59.30569
G1 X160.071 Y177.983 E59.32984
G1 X159.354 Y177.864 E59.35401
G1 X158.655 Y177.666 E59.37818
G1 X157.982 Y177.393 E59.40233
G1 X157.343 Y177.048 E59.42649
G1 X156.746 Y176.634 E59.45065
G1 X156.129 Y176.09 E59.47801
G1 X156.012 Y175.973 E59.48351
G1 X155.528 Y175.432 E59.50766
G1 X155.105 Y174.841 E59.53183
G1 X154.751 Y174.207 E59.55598
G1 X154.468 Y173.538 E59.58014
G1 X154.26 Y172.842 E59.6043
G1 X154.13 Y172.127 E59.62847
G1 X154.079 Y171.306 E59.65583
G1 X154.079 Y153.703 E60.24131
G1 X56.438 Y153.703 E63.48886
G1 X55.713 Y153.663 E63.51301
G1 X54.996 Y153.544 E63.53719
G1 X54.297 Y153.346 E63.56135
G1 X53.624 Y153.073 E63.5855
G1 X52.985 Y152.728 E63.60966
G1 X52.388 Y152.314 E63.63382
G1 X51.771 Y151.77 E63.66118
G1 X51.654 Y151.653 E63.66668
G1 X51.17 Y151.112 E63.69083
G1 X50.747 Y150.521 E63.715
G1 X50.393 Y149.887 E63.73915
G1 X50.11 Y149.218 E63.76331
G1 X49.902 Y148.522 E63.78747
G1 X49.772 Y147.807 E63.81164
G1 X49.721 Y146.986 E63.839
G1 X49.721 Y63.694 E66.6093
G1 X49.761 Y62.969 E66.63346
G1 X49.88 Y62.252 E66.65763
G1 X50.078 Y61.553 E66.68179
G1 X50.351 Y60.88 E66.70595
G1 X50.696 Y60.241 E66.7301
G1 X51.11 Y59.644 E66.75426
G1 X51.654 Y59.027 E66.78162
G1 X51.771 Y58.91 E66.78713
G1 X52.312 Y58.426 E66.81127
G0 F6000 X52.579 Y58.724
G1 F1200 X53.154 Y58.318 E66.83468
G1 X53.772 Y57.98 E66.85811
G1 X54.423 Y57.713 E66.88151
G1 X55.101 Y57.523 E66.90493
G1 X55.796 Y57.41 E66.92835
G1 X56.438 Y57.377 E66.94973
G1 X178.562 Y57.377 E71.01159
G1 X179.265 Y57.417 E71.03501
G1 X179.959 Y57.536 E71.05843
G1 X180.634 Y57.734 E71.08183
G1 X181.283 Y58.006 E71.10523
G1 X181.897 Y58.351 E71.12866
G1 X182.468 Y58.762 E71.15206
G1 X182.946 Y59.193 E71.17347
G1 X183.063 Y59.31 E71.17897
G1 X183.532 Y59.835 E71.20238
G1 X183.938 Y60.41 E71.22579
G1 X184.276 Y61.028 E71.24922
G1 X184.543 Y61.679 E71.27263
G1 X184.733 Y62.357 E71.29604
G1 X184.846 Y63.052 E71.31946
G1 X184.879 Y63.694 E71.34084
G1 X184.879 Y171.306 E74.92003
G1 X184.839 Y172.009 E74.94345
G1 X184.72 Y172.703 E74.96687
G1 X184.522 Y173.378 E74.99027
G1 X184.25 Y174.027 E75.01368
G1 X183.905 Y174.641 E75.0371
G1 X183.494 Y175.212 E75.0605
G1 X183.063 Y175.69 E75.08191
G1 X182.946 Y175.807 E75.08741
G1 X182.421 Y176.276 E75.11082
G1 X181.846 Y176.682 E75.13424
G1 X181.228 Y177.02 E75.15766
G1 X180.577 Y177.287 E75.18107
G1 X179.899 Y177.477 E75.20449
G1 X179.204 Y177.59 E75.2279
G1 X178.562 Y177.623 E75.24929
G1 X160.796 Y177.623 E75.84019
G1 X160.093 Y177.583 E75.86361
G1 X159.399 Y177.464 E75.88702
G1 X158.724 Y177.266 E75.91042
G1 X158.075 Y176.994 E75.93383
G1 X157.461 Y176.649 E75.95725
G1 X156.89 Y176.238 E75.98065
G1 X156.412 Y175.807 E76.00206
G1 X156.295 Y175.69 E76.00756
G1 X155.826 Y175.165 E76.03098
G1 X155.42 Y174.59 E76.05439
G1 X155.082 Y173.972 E76.07781
G1 X154.815 Y173.321 E76.10122
G1 X154.625 Y172.643 E76.12464
G1 X154.512 Y171.948 E76.14806
G1 X154.479 Y171.306 E76.16944
G1 X154.479 Y153.303 E76.76822
G1 X56.438 Y153.303 E80.02908
G1 X55.735 Y153.263 E80.0525
G1 X55.041 Y153.144 E80.07592
G1 X54.366 Y152.946 E80.09931
G1 X53.717 Y152.674 E80.12272
G1 X53.103 Y152.329 E80.14614
G1 X52.532 Y151.918 E80.16954
G1 X52.054 Y151.487 E80.19095
G1 X51.937 Y151.37 E80.19645
G1 X51.468 Y150.845 E80.21987
G1 X51.062 Y150.27 E80.24328
G1 X50.724 Y149.652 E80.26671
G1 X50.457 Y149.001 E80.29011
G1 X50.267 Y148.323 E80.31353
G1 X50.154 Y147.628 E80.33695
G1 X50.121 Y146.986 E80.35833
G1 X50.121 Y63.694 E83.12863
G1 X50.161 Y62.991 E83.15205
G1 X50.28 Y62.297 E83.17547
G1 X50.478 Y61.622 E83.19887
G1 X50.75 Y60.973 E83.22227
G1 X51.095 Y60.359 E83.2457
G1 X51.506 Y59.788 E83.2691
G1 X51.937 Y59.31 E83.2905
G1 X52.054 Y59.193 E83.29601
G1 X52.579 Y58.724 E83.31942
G0 F6000 X52.846 Y59.023
G1 F1200 X53.404 Y58.634 E83.34204
G1 X54.004 Y58.312 E83.36469
G1 X54.638 Y58.063 E83.38735
G1 X55.297 Y57.89 E83.41001
G1 X55.971 Y57.796 E83.43264
G1 X56.438 Y57.777 E83.44819
G1 X178.562 Y57.777 E87.51005
G1 X179.242 Y57.817 E87.53271
G1 X179.912 Y57.936 E87.55534
G1 X180.564 Y58.133 E87.57799
G1 X181.188 Y58.405 E87.60063
G1 X181.776 Y58.749 E87.62329
G1 X182.32 Y59.159 E87.64595
G1 X182.663 Y59.476 E87.66148
G1 X182.78 Y59.593 E87.66698
G1 X183.233 Y60.102 E87.68965
G1 X183.622 Y60.66 E87.71227
G1 X183.944 Y61.26 E87.73492
G1 X184.193 Y61.894 E87.75757
G1 X184.366 Y62.553 E87.78024
G1 X184.46 Y63.227 E87.80287
G1 X184.479 Y63.694 E87.81842
G1 X184.479 Y171.306 E91.39761
G1 X184.439 Y171.986 E91.42026
G1 X184.32 Y172.656 E91.44289
G1 X184.123 Y173.308 E91.46555
G1 X183.851 Y173.932 E91.48819
G1 X183.507 Y174.52 E91.51085
G1 X183.097 Y175.064 E91.5335
G1 X182.78 Y175.407 E91.54904
G1 X182.663 Y175.524 E91.55454
G1 X182.154 Y175.977 E91.5772
G1 X181.596 Y176.366 E91.59983
G1 X180.996 Y176.688 E91.62248
G1 X180.362 Y176.937 E91.64513
G1 X179.703 Y177.11 E91.66779
G1 X179.029 Y177.204 E91.69043
G1 X178.562 Y177.223 E91.70597
G1 X160.796 Y177.223 E92.29687
G1 X160.116 Y177.183 E92.31953
G1 X159.446 Y177.064 E92.34216
G1 X158.794 Y176.867 E92.36481
G1 X158.17 Y176.595 E92.38745
G1 X157.582 Y176.251 E92.41011
G1 X157.038 Y175.841 E92.43277
G1 X156.695 Y175.524 E92.4483
G1 X156.578 Y175.407 E92.45381
G1 X156.125 Y174.898 E92.47647
G1 X155.736 Y174.34 E92.49909
G1 X155.414 Y173.74 E92.52174
G1 X155.165 Y173.106 E92.5444
G1 X154.992 Y172.447 E92.56706
G1 X154.898 Y171.773 E92.58969
G1 X154.879 Y171.306 E92.60524
G1 X154.879 Y152.903 E93.21732
G1 X56.438 Y152.903 E96.49149
G1 X55.758 Y152.863 E96.51414
G1 X55.088 Y152.744 E96.53677
G1 X54.436 Y152.547 E96.55943
G1 X53.812 Y152.275 E96.58207
G1 X53.224 Y151.931 E96.60473
G1 X52.68 Y151.521 E96.62738
G1 X52.337 Y151.204 E96.64292
G1 X52.22 Y151.087 E96.64842
G1 X51.767 Y150.578 E96.67108
G1 X51.378 Y150.02 E96.69371
G1 X51.056 Y149.42 E96.71636
G1 X50.807 Y148.786 E96.73901
G1 X50.634 Y148.127 E96.76167
G1 X50.54 Y147.453 E96.78431
G1 X50.521 Y146.986 E96.79985
G1 X50.521 Y63.694 E99.57015
G1 X50.561 Y63.014 E99.59281
G1 X50.68 Y62.344 E99.61544
G1 X50.877 Y61.692 E99.6381
G1 X51.149 Y61.068 E99.66074
G1 X51.493 Y60.48 E99.6834
