;FLAVOR:Marlin
;TIME:30648
;Filament used: 26.7818m
;Layer height: 0.28
;MINX:47.721
;MINY:58.077
;MINZ:0.2
;MAXX:187.279
;MAXY:176.923
;MAXZ:48.92
;Generated with Cura_SteamEngine 4.13.1
M140 S90
M105
M190 S90
M104 S250
M105
M109 S250
M82 ;absolute extrusion mode
; Ender 3 Custom Start G-code
G92 E0 ; Reset Extruder
G28 ; Home all axes
G1 Z2.0 F3000 ; Move Z Axis up little to prevent scratching of Heat Bed
G1 X0.1 Y20 Z0.3 F5000.0 ; Move to start position
G1 X0.1 Y200.0 Z0.3 F1500.0 E15 ; Draw the first line
G1 X0.4 Y200.0 Z0.3 F5000.0 ; Move to side a little
G1 X0.4 Y20 Z0.3 F1500.0 E30 ; Draw the second line
G92 E0 ; Reset Extruder
G1 Z2.0 F3000 ; Move Z Axis up little to prevent scratching of Heat Bed
G1 X5 Y20 Z0.3 F5000.0 ; Move over to prevent blob squish
G92 E0
G92 E0
G1 F2700 E-6.5
;LAYER_COUNT:172
;LAYER:0
M107
G0 F6000 X49.973 Y59.401 Z0.2
;TYPE:SKIRT
G1 F2700 E0
G1 F1200 X50.16 Y59.257 E0.00785
G1 X50.6 Y58.955 E0.0256
G1 X51.31 Y58.59 E0.05215
G1 X51.531 Y58.498 E0.06011
G1 X52.24 Y58.263 E0.08496
G1 X52.264 Y58.257 E0.08578
G1 X52.859 Y58.146 E0.10591
G1 X53.108 Y58.115 E0.11426
G1 X53.726 Y58.077 E0.13485
G1 X181.293 Y58.079 E4.37775
G1 X181.974 Y58.126 E4.40045
G1 X182.214 Y58.159 E4.40851
G1 X182.77 Y58.267 E4.42735
G1 X183.489 Y58.507 E4.45256
G1 X183.699 Y58.595 E4.46013
G1 X184.227 Y58.853 E4.47968
G1 X184.25 Y58.866 E4.48055
G1 X184.881 Y59.289 E4.50582
G1 X185.073 Y59.44 E4.51395
G1 X185.534 Y59.85 E4.53447
G1 X185.961 Y60.337 E4.55601
G1 X186.101 Y60.519 E4.56364
G1 X186.437 Y61.016 E4.5836
G1 X186.767 Y61.669 E4.60793
G1 X186.858 Y61.888 E4.61582
G1 X187.069 Y62.507 E4.63757
G1 X187.076 Y62.533 E4.63847
G1 X187.209 Y63.213 E4.66151
G1 X187.24 Y63.461 E4.66983
G1 X187.279 Y64.081 E4.69049
G1 X187.277 Y170.94 E8.24463
G1 X187.237 Y171.574 E8.26576
G1 X187.208 Y171.801 E8.27337
G1 X187.086 Y172.429 E8.29465
G1 X187.08 Y172.452 E8.29544
G1 X186.862 Y173.101 E8.31821
G1 X186.771 Y173.321 E8.32613
G1 X186.47 Y173.929 E8.3487
G1 X186.456 Y173.953 E8.34962
G1 X186.071 Y174.519 E8.37239
G1 X185.922 Y174.709 E8.38042
G1 X185.524 Y175.16 E8.40042
G1 X185.506 Y175.178 E8.40127
G1 X185.019 Y175.605 E8.42281
G1 X184.837 Y175.745 E8.43045
G1 X184.34 Y176.081 E8.4504
G1 X183.682 Y176.413 E8.47492
G1 X183.46 Y176.505 E8.48291
G1 X182.808 Y176.724 E8.50579
G1 X182.785 Y176.73 E8.50658
G1 X182.121 Y176.856 E8.52905
G1 X181.872 Y176.886 E8.5374
G1 X181.274 Y176.922 E8.55732
G1 X159.441 Y176.923 E9.28349
G1 X158.903 Y176.889 E9.30142
G1 X158.523 Y176.923 E9.31411
G1 X149.727 Y176.922 E9.60667
G1 X149.16 Y176.89 E9.62555
G1 X148.513 Y176.816 E9.64721
G1 X147.891 Y176.704 E9.66823
G1 X147.483 Y176.586 E9.68236
G1 X146.742 Y176.336 E9.70837
G1 X146.157 Y176.096 E9.7294
G1 X145.651 Y175.813 E9.74868
G1 X144.883 Y175.323 E9.77899
G1 X144.372 Y174.95 E9.80003
G1 X143.996 Y174.603 E9.81704
G1 X143.518 Y174.114 E9.83979
G1 X143.106 Y173.635 E9.8608
G1 X142.878 Y173.307 E9.87409
G1 X142.753 Y173.111 E9.88182
G1 X142.419 Y172.574 E9.90285
G1 X142.12 Y172.017 E9.92388
G1 X141.944 Y171.58 E9.93955
G1 X141.697 Y170.872 E9.96449
G1 X141.527 Y170.263 E9.98552
G1 X141.446 Y169.757 E10.00256
G1 X141.352 Y168.878 E10.03197
G1 X141.324 Y168.346 E10.04968
G1 X141.324 Y165.885 E10.13154
G1 X141.269 Y165.302 E10.15101
G1 X141.218 Y165.099 E10.15798
G1 X141.084 Y164.822 E10.16821
G1 X140.892 Y164.541 E10.17953
G1 X140.447 Y164.227 E10.19764
G1 X140.237 Y164.103 E10.20576
G1 X53.704 Y164.101 E13.08386
G1 X53.07 Y164.061 E13.10498
G1 X52.843 Y164.032 E13.1126
G1 X52.24 Y163.917 E13.13301
G1 X51.531 Y163.682 E13.15786
G1 X51.31 Y163.59 E13.16582
G1 X50.688 Y163.279 E13.18895
G1 X50.666 Y163.266 E13.1898
G1 X50.119 Y162.891 E13.21186
G1 X49.927 Y162.74 E13.21998
G1 X49.482 Y162.346 E13.23975
G1 X49.464 Y162.328 E13.24059
G1 X49.032 Y161.834 E13.26242
G1 X48.894 Y161.654 E13.26997
G1 X48.557 Y161.156 E13.28997
G1 X48.544 Y161.134 E13.29082
G1 X48.229 Y160.501 E13.31433
G1 X48.138 Y160.281 E13.32225
G1 X47.92 Y159.632 E13.34502
G1 X47.914 Y159.609 E13.34581
G1 X47.791 Y158.967 E13.36755
G1 X47.76 Y158.719 E13.37587
G1 X47.721 Y158.099 E13.39653
G1 X47.723 Y64.058 E16.52434
G1 X47.764 Y63.419 E16.54564
G1 X47.793 Y63.194 E16.55319
G1 X47.914 Y62.571 E16.57429
G1 X47.92 Y62.548 E16.57509
G1 X48.138 Y61.899 E16.59786
G1 X48.229 Y61.679 E16.60577
G1 X48.578 Y60.99 E16.63146
G1 X48.897 Y60.523 E16.65027
G1 X49.039 Y60.338 E16.65803
G1 X49.469 Y59.846 E16.67976
G1 X49.488 Y59.827 E16.68066
G1 X49.973 Y59.401 E16.70213
G0 F6000 X50.217 Y59.718
G1 F1200 X50.404 Y59.574 E16.70998
G1 X50.811 Y59.295 E16.72639
G1 X51.464 Y58.959 E16.75081
G1 X51.685 Y58.867 E16.75878
G1 X52.337 Y58.651 E16.78162
G1 X52.361 Y58.645 E16.78244
G1 X52.909 Y58.543 E16.80098
G1 X53.158 Y58.512 E16.80933
G1 X53.726 Y58.477 E16.82826
G1 X181.293 Y58.479 E21.07115
G1 X181.92 Y58.522 E21.09206
G1 X182.16 Y58.555 E21.10011
G1 X182.673 Y58.655 E21.1175
G1 X183.335 Y58.875 E21.1407
G1 X183.545 Y58.963 E21.14827
G1 X184.03 Y59.201 E21.16624
G1 X184.053 Y59.214 E21.16712
G1 X184.634 Y59.603 E21.19038
G1 X184.826 Y59.754 E21.1985
G1 X185.251 Y60.133 E21.21744
G1 X185.644 Y60.581 E21.23726
G1 X185.784 Y60.763 E21.2449
G1 X186.094 Y61.221 E21.26329
G1 X186.398 Y61.823 E21.28572
G1 X186.489 Y62.042 E21.29361
G1 X186.683 Y62.611 E21.31361
G1 X186.69 Y62.637 E21.3145
G1 X186.812 Y63.262 E21.33568
G1 X186.843 Y63.51 E21.34399
G1 X186.879 Y64.081 E21.36302
G1 X186.877 Y170.94 E24.91717
G1 X186.84 Y171.523 E24.9366
G1 X186.811 Y171.75 E24.94421
G1 X186.699 Y172.328 E24.96379
G1 X186.693 Y172.351 E24.96458
G1 X186.493 Y172.948 E24.98552
G1 X186.402 Y173.168 E24.99344
G1 X186.124 Y173.728 E25.01424
G1 X186.11 Y173.752 E25.01516
G1 X185.757 Y174.273 E25.03609
G1 X185.608 Y174.463 E25.04412
G1 X185.241 Y174.877 E25.06252
G1 X185.223 Y174.895 E25.06337
G1 X184.775 Y175.288 E25.08319
G1 X184.593 Y175.428 E25.09083
G1 X184.135 Y175.738 E25.10922
G1 X183.529 Y176.044 E25.1318
G1 X183.307 Y176.136 E25.13979
G1 X182.707 Y176.337 E25.16084
G1 X182.684 Y176.343 E25.16163
G1 X182.073 Y176.459 E25.18232
G1 X181.824 Y176.489 E25.19066
G1 X181.274 Y176.522 E25.20898
G1 X159.441 Y176.523 E25.93515
G1 X159.005 Y176.494 E25.94969
G1 X158.523 Y176.523 E25.96575
G1 X149.727 Y176.522 E26.2583
G1 X149.205 Y176.492 E26.27569
G1 X148.558 Y176.418 E26.29735
G1 X147.962 Y176.31 E26.3175
G1 X147.61 Y176.207 E26.3297
G1 X146.869 Y175.957 E26.35571
G1 X146.309 Y175.725 E26.37587
G1 X145.866 Y175.476 E26.39277
G1 X145.098 Y174.986 E26.42307
G1 X144.609 Y174.627 E26.44325
G1 X144.283 Y174.323 E26.45807
G1 X143.805 Y173.834 E26.48082
G1 X143.41 Y173.374 E26.50098
G1 X143.215 Y173.092 E26.51239
G1 X142.759 Y172.362 E26.54101
G1 X142.473 Y171.828 E26.56116
G1 X142.322 Y171.448 E26.57476
G1 X142.075 Y170.74 E26.5997
G1 X141.913 Y170.156 E26.61986
G1 X141.844 Y169.714 E26.63474
G1 X141.75 Y168.835 E26.66414
G1 X141.724 Y168.346 E26.68043
G1 X141.724 Y165.858 E26.76318
G1 X141.665 Y165.239 E26.78386
G1 X141.596 Y164.96 E26.79342
G1 X141.43 Y164.617 E26.80609
G1 X141.191 Y164.268 E26.82016
G1 X141.173 Y164.251 E26.82099
G1 X140.654 Y163.884 E26.84213
G1 X140.363 Y163.703 E26.85353
G1 X53.704 Y163.701 E29.73582
G1 X53.121 Y163.664 E29.75525
G1 X52.894 Y163.635 E29.76286
G1 X52.337 Y163.529 E29.78172
G1 X51.685 Y163.313 E29.80456
G1 X51.464 Y163.221 E29.81252
G1 X50.892 Y162.934 E29.83381
G1 X50.87 Y162.921 E29.83466
G1 X50.366 Y162.577 E29.85495
G1 X50.174 Y162.426 E29.86308
G1 X49.765 Y162.063 E29.88127
G1 X49.747 Y162.045 E29.88211
G1 X49.349 Y161.591 E29.90219
G1 X49.211 Y161.411 E29.90974
G1 X48.902 Y160.952 E29.92814
G1 X48.889 Y160.93 E29.92899
G1 X48.598 Y160.348 E29.95063
G1 X48.507 Y160.128 E29.95855
G1 X48.307 Y159.531 E29.97949
G1 X48.301 Y159.508 E29.98028
G1 X48.188 Y158.918 E30.00026
G1 X48.157 Y158.67 E30.00858
G1 X48.121 Y158.099 E30.0276
G1 X48.123 Y64.058 E33.15542
G1 X48.161 Y63.47 E33.17502
G1 X48.19 Y63.245 E33.18256
G1 X48.301 Y62.672 E33.20198
G1 X48.307 Y62.649 E33.20277
G1 X48.507 Y62.052 E33.22371
G1 X48.598 Y61.832 E33.23163
G1 X48.92 Y61.198 E33.25528
G1 X49.214 Y60.766 E33.27266
G1 X49.356 Y60.581 E33.28041
G1 X49.752 Y60.129 E33.3004
G1 X49.771 Y60.11 E33.3013
G1 X50.217 Y59.718 E33.32104
G0 F6000 X50.461 Y60.035
G1 F1200 X50.648 Y59.891 E33.32889
G1 X51.021 Y59.635 E33.34394
G1 X51.618 Y59.329 E33.36625
G1 X51.839 Y59.237 E33.37422
G1 X52.434 Y59.039 E33.39507
G1 X52.458 Y59.033 E33.3959
G1 X52.958 Y58.94 E33.41281
G1 X53.207 Y58.909 E33.42116
G1 X53.726 Y58.877 E33.43845
G1 X181.293 Y58.879 E37.68135
G1 X181.865 Y58.918 E37.70042
G1 X182.105 Y58.951 E37.70847
G1 X182.576 Y59.043 E37.72444
G1 X183.18 Y59.244 E37.74561
G1 X183.39 Y59.332 E37.75318
G1 X183.834 Y59.55 E37.76963
G1 X183.857 Y59.563 E37.77051
G1 X184.386 Y59.918 E37.7917
G1 X184.578 Y60.069 E37.79982
G1 X184.968 Y60.416 E37.81719
G1 X185.327 Y60.825 E37.83529
G1 X185.467 Y61.007 E37.84292
G1 X185.751 Y61.427 E37.85979
G1 X186.028 Y61.976 E37.88024
G1 X186.119 Y62.195 E37.88813
G1 X186.297 Y62.715 E37.90641
G1 X186.304 Y62.741 E37.9073
G1 X186.416 Y63.312 E37.92666
G1 X186.447 Y63.56 E37.93497
G1 X186.479 Y64.081 E37.95233
G1 X186.477 Y170.94 E41.50648
G1 X186.443 Y171.472 E41.52421
G1 X186.414 Y171.699 E41.53182
G1 X186.312 Y172.227 E41.5497
G1 X186.306 Y172.25 E41.55049
G1 X186.123 Y172.795 E41.56962
G1 X186.032 Y173.015 E41.57753
G1 X185.779 Y173.526 E41.5965
G1 X185.765 Y173.55 E41.59742
G1 X185.442 Y174.026 E41.61656
G1 X185.293 Y174.216 E41.62459
G1 X184.958 Y174.594 E41.64139
G1 X184.94 Y174.612 E41.64223
G1 X184.531 Y174.971 E41.66033
G1 X184.349 Y175.111 E41.66797
G1 X183.929 Y175.395 E41.68483
G1 X183.376 Y175.674 E41.70543
G1 X183.154 Y175.766 E41.71343
G1 X182.606 Y175.95 E41.73265
G1 X182.583 Y175.956 E41.73344
G1 X182.025 Y176.062 E41.75234
G1 X181.776 Y176.092 E41.76068
G1 X181.274 Y176.122 E41.7774
G1 X159.441 Y176.123 E42.50357
G1 X158.909 Y176.086 E42.52131
G1 X158.524 Y176.123 E42.53417
G1 X149.728 Y176.122 E42.82673
G1 X149.251 Y176.095 E42.84262
G1 X148.604 Y176.021 E42.86428
G1 X148.034 Y175.915 E42.88356
G1 X147.738 Y175.828 E42.89382
G1 X146.997 Y175.578 E42.91983
G1 X146.463 Y175.355 E42.93908
G1 X146.081 Y175.139 E42.95368
G1 X145.313 Y174.649 E42.98398
G1 X144.847 Y174.304 E43.00326
G1 X144.569 Y174.044 E43.01592
G1 X144.091 Y173.555 E43.03867
G1 X143.553 Y172.877 E43.06745
G1 X143.433 Y172.688 E43.0749
G1 X143.099 Y172.151 E43.09593
G1 X142.827 Y171.639 E43.11522
G1 X142.699 Y171.316 E43.12677
G1 X142.452 Y170.608 E43.15171
G1 X142.3 Y170.05 E43.17095
G1 X142.242 Y169.672 E43.18367
G1 X142.148 Y168.793 E43.21307
G1 X142.124 Y168.346 E43.22796
G1 X142.124 Y165.842 E43.31124
G1 X142.06 Y165.17 E43.33369
G1 X141.974 Y164.824 E43.34555
G1 X141.776 Y164.415 E43.36067
G1 X141.499 Y164.01 E43.37699
G1 X141.431 Y163.943 E43.38016
G1 X140.867 Y163.544 E43.40314
G1 X140.492 Y163.303 E43.41796
G1 X53.704 Y163.301 E46.30455
G1 X53.172 Y163.267 E46.32228
G1 X52.945 Y163.238 E46.32989
G1 X52.458 Y163.147 E46.34637
G1 X52.434 Y163.141 E46.34719
G1 X51.839 Y162.943 E46.36804
G1 X51.618 Y162.851 E46.37601
G1 X51.095 Y162.59 E46.39545
G1 X51.073 Y162.577 E46.3963
G1 X50.614 Y162.262 E46.41481
G1 X50.422 Y162.111 E46.42294
G1 X50.048 Y161.78 E46.43955
G1 X50.03 Y161.762 E46.4404
G1 X49.667 Y161.347 E46.45873
G1 X49.529 Y161.167 E46.46628
G1 X49.246 Y160.749 E46.48307
G1 X49.233 Y160.727 E46.48392
G1 X48.968 Y160.195 E46.50368
G1 X48.877 Y159.975 E46.5116
G1 X48.694 Y159.43 E46.53072
G1 X48.688 Y159.407 E46.53152
G1 X48.584 Y158.868 E46.54977
G1 X48.553 Y158.62 E46.55809
G1 X48.521 Y158.099 E46.57545
G1 X48.523 Y64.058 E49.70326
G1 X48.557 Y63.521 E49.72116
G1 X48.586 Y63.296 E49.72871
G1 X48.688 Y62.773 E49.74643
G1 X48.694 Y62.75 E49.74722
G1 X48.877 Y62.205 E49.76634
G1 X48.968 Y61.985 E49.77426
G1 X49.261 Y61.406 E49.79584
G1 X49.531 Y61.01 E49.81178
G1 X49.673 Y60.825 E49.81954
G1 X50.035 Y60.412 E49.83781
G1 X50.054 Y60.393 E49.8387
G1 X50.461 Y60.035 E49.85673
G0 F6000 X50.706 Y60.352
G1 F1200 X50.893 Y60.208 E49.86458
G1 X51.232 Y59.975 E49.87826
G1 X51.772 Y59.698 E49.89845
G1 X51.993 Y59.606 E49.90641
G1 X52.531 Y59.427 E49.92527
G1 X52.555 Y59.421 E49.92609
G1 X53.008 Y59.337 E49.94141
G1 X53.257 Y59.306 E49.94976
G1 X53.726 Y59.277 E49.96539
G1 X181.293 Y59.279 E54.20828
G1 X181.811 Y59.314 E54.22555
G1 X182.051 Y59.347 E54.23361
G1 X182.479 Y59.431 E54.24811
G1 X183.026 Y59.613 E54.26729
G1 X183.236 Y59.701 E54.27486
G1 X183.637 Y59.898 E54.28972
G1 X183.66 Y59.911 E54.2906
G1 X184.139 Y60.232 E54.30978
G1 X184.331 Y60.383 E54.3179
G1 X184.685 Y60.699 E54.33369
G1 X185.01 Y61.069 E54.35006
G1 X185.15 Y61.251 E54.3577
G1 X185.408 Y61.633 E54.37303
G1 X185.659 Y62.13 E54.39155
G1 X185.75 Y62.349 E54.39944
G1 X185.91 Y62.819 E54.41595
G1 X185.917 Y62.845 E54.41685
G1 X186.019 Y63.362 E54.43438
G1 X186.05 Y63.61 E54.44269
G1 X186.079 Y64.081 E54.45838
G1 X186.077 Y170.94 E58.01253
G1 X186.046 Y171.422 E58.02859
G1 X186.017 Y171.649 E58.0362
G1 X185.925 Y172.126 E58.05236
G1 X185.919 Y172.149 E58.05315
G1 X185.753 Y172.642 E58.07045
G1 X185.662 Y172.862 E58.07837
G1 X185.433 Y173.325 E58.09555
G1 X185.419 Y173.349 E58.09648
G1 X185.127 Y173.779 E58.11376
G1 X184.978 Y173.969 E58.1218
G1 X184.675 Y174.311 E58.13699
G1 X184.657 Y174.329 E58.13784
G1 X184.287 Y174.654 E58.15422
G1 X184.105 Y174.794 E58.16186
G1 X183.723 Y175.052 E58.17719
G1 X183.223 Y175.304 E58.19581
G1 X183.001 Y175.396 E58.2038
G1 X182.505 Y175.563 E58.22121
G1 X182.482 Y175.569 E58.222
G1 X181.978 Y175.665 E58.23907
G1 X181.729 Y175.695 E58.24741
G1 X181.274 Y175.722 E58.26257
G1 X159.441 Y175.723 E58.98874
G1 X159.002 Y175.691 E59.00338
G1 X158.977 Y175.696 E59.00422
G1 X158.524 Y175.723 E59.01932
G1 X149.728 Y175.722 E59.31187
G1 X149.296 Y175.697 E59.32627
G1 X148.649 Y175.623 E59.34793
G1 X147.866 Y175.449 E59.3746
G1 X147.125 Y175.199 E59.40061
G1 X146.617 Y174.985 E59.41895
G1 X146.296 Y174.802 E59.43124
G1 X145.528 Y174.312 E59.46154
G1 X145.086 Y173.982 E59.47988
G1 X144.855 Y173.764 E59.49045
G1 X144.377 Y173.275 E59.51319
G1 X143.89 Y172.662 E59.53923
G1 X143.772 Y172.477 E59.54653
G1 X143.438 Y171.94 E59.56756
G1 X143.182 Y171.452 E59.58589
G1 X143.077 Y171.185 E59.59543
G1 X142.83 Y170.477 E59.62037
G1 X142.687 Y169.945 E59.6387
G1 X142.64 Y169.629 E59.64932
G1 X142.546 Y168.75 E59.67873
G1 X142.524 Y168.346 E59.69218
G1 X142.524 Y165.825 E59.77603
G1 X142.455 Y165.101 E59.80022
G1 X142.352 Y164.687 E59.81441
G1 X142.123 Y164.213 E59.83192
G1 X141.808 Y163.755 E59.85041
G1 X141.689 Y163.636 E59.856
G1 X141.074 Y163.201 E59.88106
G1 X140.877 Y163.093 E59.88853
G1 X140.625 Y162.903 E59.89903
G1 X53.704 Y162.901 E62.79003
G1 X53.222 Y162.87 E62.8061
G1 X52.995 Y162.841 E62.81371
G1 X52.555 Y162.759 E62.82859
G1 X52.531 Y162.753 E62.82942
G1 X51.993 Y162.574 E62.84828
G1 X51.772 Y162.482 E62.85624
G1 X51.299 Y162.246 E62.87382
G1 X51.277 Y162.233 E62.87467
G1 X50.861 Y161.948 E62.89144
G1 X50.669 Y161.797 E62.89957
G1 X50.331 Y161.497 E62.9146
G1 X50.313 Y161.479 E62.91544
G1 X49.984 Y161.104 E62.93204
G1 X49.846 Y160.924 E62.93958
G1 X49.59 Y160.545 E62.95479
G1 X49.577 Y160.523 E62.95564
G1 X49.338 Y160.042 E62.97351
G1 X49.247 Y159.822 E62.98142
G1 X49.081 Y159.329 E62.99873
G1 X49.075 Y159.306 E62.99952
G1 X48.981 Y158.818 E63.01605
G1 X48.95 Y158.57 E63.02436
G1 X48.921 Y158.099 E63.04005
G1 X48.923 Y64.058 E66.16787
G1 X48.954 Y63.572 E66.18407
G1 X48.983 Y63.347 E66.19161
G1 X49.075 Y62.874 E66.20764
G1 X49.081 Y62.851 E66.20843
G1 X49.247 Y62.358 E66.22573
G1 X49.338 Y62.138 E66.23365
G1 X49.603 Y61.614 E66.25318
G1 X49.849 Y61.253 E66.26771
G1 X49.991 Y61.068 E66.27547
G1 X50.318 Y60.695 E66.29197
G1 X50.337 Y60.676 E66.29286
G1 X50.706 Y60.352 E66.30919
G0 F6000 X50.95 Y60.669
G1 F1200 X51.137 Y60.525 E66.31704
G1 X51.442 Y60.315 E66.32936
G1 X51.925 Y60.067 E66.34742
G1 X52.146 Y59.975 E66.35538
G1 X52.628 Y59.816 E66.37226
G1 X53.057 Y59.734 E66.38679
G1 X53.306 Y59.703 E66.39513
G1 X53.726 Y59.677 E66.40913
G1 X181.293 Y59.679 E70.65202
G1 X181.756 Y59.711 E70.66746
G1 X181.996 Y59.744 E70.67552
