;FLAVOR:Marlin
;TIME:18838
;Filament used: 20.546m
;Layer height: 0.28
;MINX:47.721
;MINY:58.077
;MINZ:0.2
;MAXX:187.279
;MAXY:176.923
;MAXZ:13.88
;Generated with Cura_SteamEngine 4.13.1
M140 S90
M105
M190 S90
M104 S250
M105
M109 S250
M82 ;absolute extrusion mode
; Ender 3 Custom Start G-code
G92 E0 ; Reset Extruder
G28 ; Home all axes
G1 Z2.0 F3000 ; Move Z Axis up little to prevent scratching of Heat Bed
G1 X0.1 Y20 Z0.3 F5000.0 ; Move to start position
G1 X0.1 Y200.0 Z0.3 F1500.0 E15 ; Draw the first line
G1 X0.4 Y200.0 Z0.3 F5000.0 ; Move to side a little
G1 X0.4 Y20 Z0.3 F1500.0 E30 ; Draw the second line
G92 E0 ; Reset Extruder
G1 Z2.0 F3000 ; Move Z Axis up little to prevent scratching of Heat Bed
G1 X5 Y20 Z0.3 F5000.0 ; Move over to prevent blob squish
G92 E0
G92 E0
G1 F2700 E-6.5
;LAYER_COUNT:47
;LAYER:0
M107
G0 F6000 X49.973 Y59.401 Z0.2
;TYPE:SKIRT
G1 F2700 E0
G1 F1200 X50.16 Y59.257 E0.00785
G1 X50.6 Y58.955 E0.0256
G1 X51.31 Y58.59 E0.05215
G1 X51.531 Y58.498 E0.06011
G1 X52.24 Y58.263 E0.08496
G1 X52.264 Y58.257 E0.08578
G1 X52.849 Y58.148 E0.10557
G1 X53.086 Y58.118 E0.11352
G1 X53.714 Y58.078 E0.13445
G1 X163.162 Y58.077 E3.7747
G1 X163.7 Y58.111 E3.79263
G1 X164.079 Y58.077 E3.80529
G1 X181.29 Y58.078 E4.37773
G1 X181.981 Y58.126 E4.40077
G1 X182.196 Y58.156 E4.40799
G1 X182.814 Y58.282 E4.42896
G1 X182.873 Y58.298 E4.431
G1 X183.492 Y58.511 E4.45277
G1 X183.693 Y58.595 E4.46002
G1 X184.26 Y58.875 E4.48105
G1 X184.782 Y59.221 E4.50188
G1 X185.008 Y59.392 E4.5113
G1 X185.487 Y59.804 E4.53232
G1 X185.94 Y60.312 E4.55496
G1 X186.079 Y60.491 E4.56249
G1 X186.435 Y61.014 E4.58354
G1 X186.736 Y61.613 E4.60583
G1 X186.85 Y61.883 E4.61558
G1 X187.059 Y62.48 E4.63662
G1 X187.197 Y63.143 E4.65914
G1 X187.232 Y63.396 E4.66764
G1 X187.279 Y64.081 E4.69048
G1 X187.278 Y170.915 E8.24379
G1 X187.233 Y171.587 E8.26619
G1 X187.196 Y171.86 E8.27535
G1 X187.071 Y172.479 E8.29636
G1 X186.845 Y173.138 E8.31953
G1 X186.748 Y173.367 E8.3278
G1 X186.465 Y173.932 E8.34882
G1 X186.101 Y174.474 E8.37053
G1 X185.938 Y174.685 E8.3794
G1 X185.521 Y175.16 E8.40042
G1 X185.005 Y175.61 E8.42319
G1 X184.789 Y175.774 E8.43222
G1 X184.262 Y176.124 E8.45326
G1 X183.707 Y176.399 E8.47386
G1 X183.465 Y176.501 E8.48259
G1 X182.868 Y176.71 E8.50363
G1 X182.014 Y176.87 E8.53253
G1 X181.72 Y176.899 E8.54235
G1 X181.229 Y176.923 E8.5587
G1 X160.334 Y176.923 E9.25368
G1 X159.836 Y176.898 E9.27026
G1 X159.706 Y176.885 E9.27461
G1 X159.206 Y176.923 E9.29128
G1 X149.98 Y176.922 E9.59814
G1 X149.415 Y176.89 E9.61696
G1 X148.537 Y176.79 E9.64635
G1 X147.812 Y176.652 E9.6709
G1 X147.438 Y176.538 E9.68391
G1 X146.612 Y176.25 E9.713
G1 X146.002 Y175.991 E9.73504
G1 X145.577 Y175.752 E9.75126
G1 X144.839 Y175.288 E9.78025
G1 X144.331 Y174.923 E9.80106
G1 X143.948 Y174.578 E9.8182
G1 X143.327 Y173.957 E9.84741
G1 X142.947 Y173.529 E9.86645
G1 X142.616 Y173.064 E9.88543
G1 X142.154 Y172.328 E9.91434
G1 X141.907 Y171.886 E9.93118
G1 X141.66 Y171.301 E9.9523
G1 X141.371 Y170.475 E9.9814
G1 X141.234 Y170.017 E9.9973
G1 X141.117 Y169.369 E10.01921
G1 X141.016 Y168.481 E10.04893
G1 X140.984 Y167.916 E10.06775
G1 X140.984 Y165.303 E10.15466
G1 X140.952 Y164.932 E10.16705
G1 X140.836 Y164.613 E10.17834
G1 X140.618 Y164.353 E10.18962
G1 X140.324 Y164.182 E10.20093
G1 X140.156 Y164.137 E10.20672
G1 X139.77 Y164.103 E10.21961
G1 X53.714 Y164.102 E13.08184
G1 X53.086 Y164.062 E13.10277
G1 X52.849 Y164.032 E13.11072
G1 X52.264 Y163.923 E13.13051
G1 X52.24 Y163.917 E13.13133
G1 X51.531 Y163.682 E13.15617
G1 X51.31 Y163.59 E13.16414
G1 X50.6 Y163.225 E13.19069
G1 X50.16 Y162.923 E13.20844
G1 X49.973 Y162.779 E13.21629
G1 X49.488 Y162.353 E13.23776
G1 X49.469 Y162.334 E13.23865
G1 X49.039 Y161.842 E13.26039
G1 X48.897 Y161.657 E13.26814
G1 X48.578 Y161.19 E13.28695
G1 X48.229 Y160.501 E13.31264
G1 X48.138 Y160.281 E13.32056
G1 X47.92 Y159.632 E13.34333
G1 X47.914 Y159.609 E13.34412
G1 X47.791 Y158.967 E13.36586
G1 X47.76 Y158.719 E13.37417
G1 X47.721 Y158.099 E13.39484
G1 X47.723 Y64.059 E16.52262
G1 X47.764 Y63.423 E16.54382
G1 X47.793 Y63.197 E16.5514
G1 X47.914 Y62.571 E16.5726
G1 X47.92 Y62.548 E16.57339
G1 X48.138 Y61.899 E16.59616
G1 X48.229 Y61.679 E16.60408
G1 X48.578 Y60.99 E16.62977
G1 X48.897 Y60.523 E16.64858
G1 X49.039 Y60.338 E16.65634
G1 X49.469 Y59.846 E16.67807
G1 X49.488 Y59.827 E16.67896
G1 X49.973 Y59.401 E16.70043
G0 F6000 X50.217 Y59.718
G1 F1200 X50.404 Y59.574 E16.70828
G1 X50.811 Y59.295 E16.7247
G1 X51.464 Y58.959 E16.74912
G1 X51.685 Y58.867 E16.75708
G1 X52.337 Y58.651 E16.77993
G1 X52.899 Y58.544 E16.79896
G1 X53.136 Y58.514 E16.8069
G1 X53.714 Y58.478 E16.82616
G1 X163.162 Y58.477 E20.46642
G1 X163.598 Y58.506 E20.48095
G1 X164.079 Y58.477 E20.49698
G1 X181.29 Y58.478 E21.06942
G1 X181.926 Y58.522 E21.09062
G1 X182.141 Y58.552 E21.09784
G1 X182.709 Y58.668 E21.11713
G1 X182.768 Y58.684 E21.11916
G1 X183.338 Y58.88 E21.13921
G1 X183.539 Y58.964 E21.14645
G1 X184.082 Y59.234 E21.16662
G1 X184.541 Y59.54 E21.18497
G1 X184.767 Y59.711 E21.1944
G1 X185.225 Y60.108 E21.21456
G1 X185.624 Y60.558 E21.23456
G1 X185.763 Y60.737 E21.2421
G1 X186.103 Y61.239 E21.26226
G1 X186.368 Y61.769 E21.28197
G1 X186.482 Y62.039 E21.29172
G1 X186.68 Y62.612 E21.31188
G1 X186.801 Y63.198 E21.33178
G1 X186.836 Y63.451 E21.34028
G1 X186.879 Y64.081 E21.36128
G1 X186.878 Y170.915 E24.91459
G1 X186.836 Y171.533 E24.9352
G1 X186.799 Y171.806 E24.94436
G1 X186.678 Y172.4 E24.96452
G1 X186.477 Y172.982 E24.985
G1 X186.38 Y173.211 E24.99327
G1 X186.107 Y173.753 E25.01346
G1 X185.784 Y174.229 E25.03259
G1 X185.621 Y174.44 E25.04146
G1 X185.22 Y174.895 E25.06163
G1 X184.763 Y175.292 E25.08176
G1 X184.547 Y175.456 E25.09079
G1 X184.041 Y175.79 E25.11095
G1 X183.552 Y176.031 E25.12908
G1 X183.31 Y176.133 E25.13782
G1 X182.737 Y176.331 E25.15798
G1 X181.975 Y176.472 E25.18376
G1 X181.681 Y176.501 E25.19358
G1 X181.229 Y176.523 E25.20863
G1 X160.334 Y176.523 E25.9036
G1 X159.876 Y176.5 E25.91886
G1 X159.761 Y176.488 E25.9227
G1 X159.207 Y176.523 E25.94116
G1 X149.981 Y176.522 E26.24802
G1 X149.46 Y176.492 E26.26538
G1 X148.582 Y176.392 E26.29477
G1 X147.913 Y176.266 E26.31741
G1 X147.57 Y176.161 E26.32934
G1 X146.744 Y175.873 E26.35844
G1 X146.181 Y175.633 E26.37879
G1 X145.79 Y175.413 E26.39372
G1 X145.052 Y174.949 E26.42271
G1 X144.583 Y174.612 E26.44192
G1 X144.231 Y174.295 E26.45767
G1 X143.61 Y173.674 E26.48688
G1 X143.259 Y173.28 E26.50444
G1 X142.955 Y172.852 E26.5219
G1 X142.493 Y172.116 E26.5508
G1 X142.265 Y171.707 E26.56637
G1 X142.037 Y171.169 E26.58581
G1 X141.748 Y170.343 E26.61491
G1 X141.622 Y169.92 E26.62959
G1 X141.514 Y169.324 E26.64974
G1 X141.413 Y168.436 E26.67946
G1 X141.384 Y167.916 E26.69679
G1 X141.384 Y165.292 E26.78406
G1 X141.346 Y164.857 E26.79858
G1 X141.183 Y164.411 E26.81438
G1 X140.88 Y164.05 E26.83005
G1 X140.67 Y163.902 E26.8386
G1 X140.227 Y163.742 E26.85426
G1 X139.782 Y163.703 E26.86912
G1 X53.714 Y163.702 E29.73176
G1 X53.136 Y163.666 E29.75102
G1 X52.899 Y163.636 E29.75896
G1 X52.337 Y163.529 E29.77799
G1 X51.685 Y163.313 E29.80084
G1 X51.464 Y163.221 E29.8088
G1 X50.811 Y162.885 E29.83322
G1 X50.404 Y162.606 E29.84963
G1 X50.217 Y162.462 E29.85748
G1 X49.771 Y162.07 E29.87723
G1 X49.752 Y162.051 E29.87813
G1 X49.356 Y161.599 E29.89811
G1 X49.214 Y161.414 E29.90587
G1 X48.92 Y160.982 E29.92325
G1 X48.598 Y160.348 E29.9469
G1 X48.507 Y160.128 E29.95482
G1 X48.307 Y159.531 E29.97576
G1 X48.301 Y159.508 E29.97655
G1 X48.188 Y158.918 E29.99653
G1 X48.157 Y158.67 E30.00485
G1 X48.121 Y158.099 E30.02387
G1 X48.123 Y64.059 E33.15166
G1 X48.16 Y63.474 E33.17115
G1 X48.189 Y63.248 E33.17873
G1 X48.301 Y62.672 E33.19825
G1 X48.307 Y62.649 E33.19904
G1 X48.507 Y62.052 E33.21998
G1 X48.598 Y61.832 E33.2279
G1 X48.92 Y61.198 E33.25155
G1 X49.214 Y60.766 E33.26893
G1 X49.356 Y60.581 E33.27669
G1 X49.752 Y60.129 E33.29667
G1 X49.771 Y60.11 E33.29757
G1 X50.217 Y59.718 E33.31732
G0 F6000 X50.461 Y60.035
G1 F1200 X50.648 Y59.891 E33.32517
G1 X51.021 Y59.635 E33.34021
G1 X51.618 Y59.329 E33.36253
G1 X51.839 Y59.237 E33.37049
G1 X52.434 Y59.039 E33.39134
G1 X52.458 Y59.033 E33.39217
G1 X52.95 Y58.941 E33.40882
G1 X53.187 Y58.911 E33.41676
G1 X53.714 Y58.878 E33.43432
G1 X163.162 Y58.877 E37.07458
G1 X163.694 Y58.914 E37.09232
G1 X164.079 Y58.877 E37.10518
G1 X181.29 Y58.878 E37.67762
G1 X181.87 Y58.918 E37.69696
G1 X182.085 Y58.948 E37.70418
G1 X182.604 Y59.054 E37.7218
G1 X182.663 Y59.07 E37.72383
G1 X183.183 Y59.249 E37.74212
G1 X183.384 Y59.333 E37.74937
G1 X183.902 Y59.592 E37.76863
G1 X184.299 Y59.859 E37.78454
G1 X184.525 Y60.03 E37.79397
G1 X184.962 Y60.41 E37.81323
G1 X185.308 Y60.803 E37.83064
G1 X185.447 Y60.982 E37.83818
G1 X185.77 Y61.463 E37.85745
G1 X185.999 Y61.924 E37.87457
G1 X186.113 Y62.194 E37.88432
G1 X186.301 Y62.742 E37.90359
G1 X186.404 Y63.252 E37.92089
G1 X186.439 Y63.505 E37.92939
G1 X186.479 Y64.081 E37.94859
G1 X186.478 Y170.915 E41.50191
G1 X186.44 Y171.479 E41.52071
G1 X186.403 Y171.752 E41.52987
G1 X186.286 Y172.319 E41.54913
G1 X186.108 Y172.826 E41.567
G1 X186.011 Y173.055 E41.57527
G1 X185.749 Y173.572 E41.59455
G1 X185.468 Y173.985 E41.61116
G1 X185.305 Y174.196 E41.62003
G1 X184.92 Y174.629 E41.6393
G1 X184.521 Y174.973 E41.65682
G1 X184.305 Y175.137 E41.66584
G1 X183.82 Y175.455 E41.68513
G1 X183.396 Y175.662 E41.70083
G1 X183.154 Y175.764 E41.70956
G1 X182.606 Y175.952 E41.72883
G1 X181.935 Y176.074 E41.75151
G1 X181.641 Y176.103 E41.76134
G1 X181.229 Y176.123 E41.77506
G1 X160.334 Y176.123 E42.47003
G1 X159.916 Y176.102 E42.48395
G1 X159.606 Y176.104 E42.49426
G1 X159.207 Y176.123 E42.50755
G1 X149.981 Y176.122 E42.8144
G1 X149.506 Y176.095 E42.83023
G1 X148.628 Y175.995 E42.85962
G1 X148.015 Y175.879 E42.88037
G1 X147.701 Y175.783 E42.89129
G1 X146.875 Y175.495 E42.92039
G1 X146.36 Y175.276 E42.939
G1 X146.002 Y175.075 E42.95265
G1 X145.264 Y174.611 E42.98165
G1 X144.836 Y174.302 E42.99921
G1 X144.514 Y174.012 E43.01362
G1 X143.893 Y173.391 E43.04283
G1 X143.571 Y173.03 E43.05892
G1 X143.294 Y172.639 E43.07486
G1 X142.832 Y171.903 E43.10376
G1 X142.622 Y171.528 E43.11805
G1 X142.415 Y171.037 E43.13578
G1 X142.126 Y170.211 E43.16488
G1 X142.01 Y169.823 E43.17835
G1 X141.912 Y169.279 E43.19674
G1 X141.811 Y168.391 E43.22646
G1 X141.784 Y167.916 E43.24229
G1 X141.784 Y165.269 E43.33033
G1 X141.743 Y164.794 E43.34618
G1 X141.663 Y164.494 E43.35651
G1 X141.53 Y164.21 E43.36694
G1 X141.356 Y163.961 E43.37704
G1 X141.134 Y163.738 E43.38751
G1 X140.87 Y163.553 E43.39823
G1 X140.599 Y163.427 E43.40817
G1 X140.299 Y163.346 E43.41851
G1 X139.805 Y163.303 E43.435
G1 X53.714 Y163.302 E46.2984
G1 X53.187 Y163.269 E46.31596
G1 X52.95 Y163.239 E46.32391
G1 X52.458 Y163.147 E46.34055
G1 X52.434 Y163.141 E46.34138
G1 X51.839 Y162.943 E46.36223
G1 X51.618 Y162.851 E46.37019
G1 X51.021 Y162.545 E46.39251
G1 X50.648 Y162.289 E46.40755
G1 X50.461 Y162.145 E46.4154
G1 X50.054 Y161.787 E46.43343
G1 X50.035 Y161.768 E46.43433
G1 X49.673 Y161.355 E46.45259
G1 X49.531 Y161.17 E46.46035
G1 X49.261 Y160.774 E46.47629
G1 X48.968 Y160.195 E46.49787
G1 X48.877 Y159.975 E46.50579
G1 X48.694 Y159.43 E46.52491
G1 X48.688 Y159.407 E46.5257
G1 X48.584 Y158.868 E46.54396
G1 X48.553 Y158.62 E46.55227
G1 X48.521 Y158.099 E46.56964
G1 X48.523 Y64.059 E49.69742
G1 X48.557 Y63.524 E49.71525
G1 X48.586 Y63.298 E49.72283
G1 X48.688 Y62.773 E49.74062
G1 X48.694 Y62.75 E49.74141
G1 X48.877 Y62.205 E49.76053
G1 X48.968 Y61.985 E49.76845
G1 X49.261 Y61.406 E49.79003
G1 X49.531 Y61.01 E49.80597
G1 X49.673 Y60.825 E49.81373
G1 X50.035 Y60.412 E49.83199
G1 X50.054 Y60.393 E49.83289
G1 X50.461 Y60.035 E49.85092
G0 F6000 X50.706 Y60.352
G1 F1200 X50.893 Y60.208 E49.85877
G1 X51.232 Y59.975 E49.87245
G1 X51.772 Y59.698 E49.89263
G1 X51.993 Y59.606 E49.90059
G1 X52.531 Y59.427 E49.91945
G1 X52.555 Y59.421 E49.92028
G1 X53 Y59.338 E49.93533
G1 X53.237 Y59.308 E49.94328
G1 X53.714 Y59.278 E49.95917
G1 X163.162 Y59.277 E53.59943
G1 X163.601 Y59.309 E53.61407
G1 X163.626 Y59.304 E53.61492
G1 X164.079 Y59.277 E53.63001
G1 X181.29 Y59.278 E54.20245
G1 X181.815 Y59.314 E54.21995
G1 X182.03 Y59.344 E54.22717
G1 X182.5 Y59.44 E54.24313
G1 X182.559 Y59.456 E54.24516
G1 X183.029 Y59.618 E54.2617
G1 X183.23 Y59.702 E54.26894
G1 X183.722 Y59.951 E54.28728
G1 X184.058 Y60.178 E54.30077
G1 X184.284 Y60.349 E54.3102
G1 X184.698 Y60.712 E54.32851
G1 X184.992 Y61.048 E54.34336
G1 X185.131 Y61.227 E54.3509
G1 X185.437 Y61.686 E54.36924
G1 X185.631 Y62.08 E54.38385
G1 X185.745 Y62.35 E54.3936
G1 X185.922 Y62.872 E54.41193
G1 X186.008 Y63.307 E54.42668
G1 X186.043 Y63.56 E54.43517
G1 X186.079 Y64.081 E54.45254
G1 X186.078 Y170.915 E58.00586
G1 X186.044 Y171.425 E58.02286
G1 X186.007 Y171.698 E58.03202
G1 X185.893 Y172.238 E58.05038
G1 X185.74 Y172.67 E58.06562
G1 X185.643 Y172.899 E58.07389
G1 X185.392 Y173.39 E58.09223
G1 X185.151 Y173.74 E58.10637
G1 X184.988 Y173.951 E58.11523
G1 X184.621 Y174.362 E58.13356
G1 X184.279 Y174.654 E58.14852
G1 X184.063 Y174.818 E58.15754
G1 X183.601 Y175.119 E58.17588
G1 X183.241 Y175.294 E58.18919
G1 X182.999 Y175.396 E58.19793
G1 X182.477 Y175.572 E58.21625
G1 X181.896 Y175.676 E58.23588
G1 X181.602 Y175.705 E58.24571
G1 X181.229 Y175.723 E58.25813
G1 X160.334 Y175.723 E58.9531
G1 X159.956 Y175.704 E58.96568
G1 X159.691 Y175.674 E58.97455
G1 X159.207 Y175.723 E58.99074
G1 X149.981 Y175.722 E59.29759
G1 X149.551 Y175.698 E59.31192
G1 X148.673 Y175.598 E59.34131
G1 X148.117 Y175.492 E59.36013
G1 X147.833 Y175.405 E59.37001
G1 X147.007 Y175.117 E59.39911
G1 X146.539 Y174.918 E59.41602
G1 X146.215 Y174.736 E59.42838
G1 X145.477 Y174.272 E59.45738
G1 X145.088 Y173.991 E59.47334
G1 X144.797 Y173.729 E59.48636
G1 X144.176 Y173.108 E59.51557
G1 X143.884 Y172.78 E59.53018
G1 X143.633 Y172.426 E59.54461
G1 X143.171 Y171.69 E59.57351
G1 X142.98 Y171.349 E59.58651
G1 X142.792 Y170.905 E59.60255
G1 X142.503 Y170.079 E59.63166
G1 X142.398 Y169.726 E59.6439
G1 X142.309 Y169.233 E59.66057
G1 X142.208 Y168.345 E59.69029
G1 X142.184 Y167.916 E59.70458
G1 X142.184 Y165.258 E59.79299
G1 X142.137 Y164.719 E59.81098
G1 X142.041 Y164.356 E59.82347
G1 X141.879 Y164.011 E59.83615
G1 X141.663 Y163.702 E59.84869
G1 X141.393 Y163.431 E59.86141
G1 X141.073 Y163.207 E59.8744
G1 X140.735 Y163.049 E59.88681
G1 X140.37 Y162.951 E59.89938
G1 X139.817 Y162.903 E59.91785
G1 X53.714 Y162.902 E62.78164
G1 X53.237 Y162.872 E62.79754
G1 X53 Y162.842 E62.80549
G1 X52.555 Y162.759 E62.82054
G1 X52.531 Y162.753 E62.82136
G1 X51.993 Y162.574 E62.84022
G1 X51.772 Y162.482 E62.84818
G1 X51.232 Y162.205 E62.86837
G1 X50.893 Y161.972 E62.88205
G1 X50.706 Y161.828 E62.8899
G1 X50.337 Y161.504 E62.90623
G1 X50.318 Y161.485 E62.90713
G1 X49.991 Y161.112 E62.92363
G1 X49.849 Y160.927 E62.93138
G1 X49.603 Y160.566 E62.94591
G1 X49.338 Y160.042 E62.96544
G1 X49.247 Y159.822 E62.97336
G1 X49.081 Y159.329 E62.99066
G1 X49.075 Y159.306 E62.99145
G1 X48.981 Y158.818 E63.00798
G1 X48.95 Y158.57 E63.0163
G1 X48.921 Y158.099 E63.03199
G1 X48.923 Y64.059 E66.15977
G1 X48.954 Y63.575 E66.17591
G1 X48.983 Y63.349 E66.18348
G1 X49.075 Y62.874 E66.19958
G1 X49.081 Y62.851 E66.20037
G1 X49.247 Y62.358 E66.21767
G1 X49.338 Y62.138 E66.22559
G1 X49.603 Y61.614 E66.24512
G1 X49.849 Y61.253 E66.25965
G1 X49.991 Y61.068 E66.2674
G1 X50.318 Y60.695 E66.2839
G1 X50.337 Y60.676 E66.2848
G1 X50.706 Y60.352 E66.30113
G0 F6000 X50.95 Y60.669
G1 F1200 X51.137 Y60.525 E66.30898
G1 X51.442 Y60.315 E66.32129
G1 X51.925 Y60.067 E66.33935
G1 X52.146 Y59.975 E66.34731
G1 X52.628 Y59.816 E66.3642
G1 X53.05 Y59.735 E66.37849
G1 X53.287 Y59.705 E66.38643
G1 X53.714 Y59.678 E66.40066
G1 X163.162 Y59.677 E70.04092
G1 X163.669 Y59.716 E70.05783
G1 X164.079 Y59.677 E70.07153
G1 X181.29 Y59.678 E70.64397
G1 X181.76 Y59.711 E70.65964
G1 X181.975 Y59.741 E70.66686
G1 X182.395 Y59.827 E70.68112
G1 X182.454 Y59.843 E70.68315
G1 X182.875 Y59.987 E70.69795
G1 X183.076 Y60.071 E70.7052
G1 X183.54 Y60.308 E70.72253
G1 X183.816 Y60.497 E70.73365
G1 X184.042 Y60.668 E70.74308
G1 X184.433 Y61.013 E70.76042
